dist/img/logo1.svg

<svg width="120" height="47" viewBox="0 0 120 47" fill="none" xmlns="http://www.w3.org/2000/svg">
<path d="M28.6069 23.9978L16.093 47.4957H12.5182L-3.05176e-05 23.9978L12.5182 0.5H16.0973L3.57909 23.9978L14.3078 44.1407L25.0365 23.9978L18.7795 12.2489L20.5647 8.88958L28.6069 23.9978ZM23.2426 0.5H19.6678L7.14953 23.9978L15.1961 39.106L16.9856 35.7511L10.7287 24.0022L21.453 3.85931L32.1817 24.0022L19.6678 47.5H23.2426L35.7565 24.0022L23.2426 0.5ZM120 19.2547V21.1563H116.412V28.6147H113.99V21.1563H110.402V19.2547H120ZM106.16 19.2547H103.742V28.6147H111.425V26.7001H106.151L106.16 19.2547ZM59.5797 24.7724H64.6277V22.9796H59.5927V21.1563H65.1V19.2547H57.1705V28.6147H65.256V26.7001H59.5927L59.5797 24.7724ZM75.3781 19.2547V25.3946L69.8274 19.2547H67.7648V28.6147H69.9314V22.4618L75.4604 28.6147H77.5489V19.2547H75.3781ZM96.1768 28.7452C98.9153 28.7452 100.978 27.5704 100.978 24.755V19.2547H98.5383V24.755C98.5383 25.7079 98.1917 26.8219 96.1768 26.8219C94.1619 26.8219 93.8196 25.7079 93.8196 24.755V19.2547H91.3801V24.755C91.4017 27.5704 93.4643 28.7452 96.1984 28.7452H96.1768ZM87.0774 26.8654H82.3413L81.6176 28.606H79.1305L83.1386 19.2591H86.293L90.3011 28.606H87.8096L87.0774 26.8654ZM86.2844 24.9638L84.7071 21.1781L83.1342 24.9638H86.2844ZM54.835 28.6147L52.8634 25.2119C53.3768 24.9618 53.8064 24.5668 54.0996 24.0752C54.3929 23.5837 54.537 23.0169 54.5143 22.4444C54.5143 20.6167 53.2448 19.2678 50.8919 19.2678H45.1289V28.6147H47.5554V25.6209H50.5626L52.1745 28.6147H54.835ZM52.0315 22.4444C52.0315 23.1841 51.5159 23.7498 50.5669 23.7498H47.5338V21.1824H50.5669C51.5159 21.1476 52.0315 21.6915 52.0315 22.4313V22.4444Z" fill="white"/>
</svg>

<svg width="120" height="47" fill="none" xmlns="http://www.w3.org/2000/svg"><path d="M28.607 23.998L16.093 47.496h-3.575L0 23.998 12.518.5h3.58L3.578 23.998l10.73 20.142 10.729-20.143-6.258-11.75 1.786-3.358 8.042 15.108zM23.243.5h-3.575L7.15 23.998l8.046 15.108 1.79-3.355-6.257-11.749L21.453 3.86l10.729 20.143L19.668 47.5h3.575l12.514-23.498L23.243.5zM120 19.255v1.901h-3.588v7.459h-2.422v-7.459h-3.588v-1.901H120zm-13.84 0h-2.418v9.36h7.683V26.7h-5.274l.009-7.445zm-46.58 5.517h5.048V22.98h-5.035v-1.824H65.1v-1.901h-7.93v9.36h8.086V26.7h-5.663l-.013-1.928zm15.798-5.517v6.14l-5.55-6.14h-2.063v9.36h2.166v-6.153l5.53 6.153h2.088v-9.36h-2.17zm20.799 9.49c2.738 0 4.801-1.175 4.801-3.99v-5.5h-2.44v5.5c0 .953-.346 2.067-2.361 2.067s-2.357-1.114-2.357-2.067v-5.5h-2.44v5.5c.022 2.815 2.084 3.99 4.818 3.99h-.021zm-9.1-1.88h-4.736l-.723 1.741H79.13l4.008-9.347h3.154l4.008 9.347h-2.49l-.733-1.74zm-.793-1.901l-1.577-3.786-1.573 3.786h3.15zm-31.449 3.65l-1.972-3.402a2.954 2.954 0 001.65-2.767c.001-1.828-1.268-3.177-3.621-3.177h-5.763v9.347h2.426V25.62h3.008l1.611 2.994h2.661zm-2.803-6.17c0 .74-.516 1.306-1.465 1.306h-3.033v-2.568h3.033c.949-.034 1.465.51 1.465 1.25v.012z" fill="#fff"/></svg>
